!!!COM: Palestrina, Giovanni Perluigi da
!!!OPR: Missa Alma Redemptoris mater
!!!OMD: Kyrie
!!!OTL: First Section
**kern	**kern	**kern	**kern	**kern	**kern
*Ibass	*Ibass	*Itenor	*Icalto	*Icalto	*Icant
!Bassus 2	!Bassus 1	!Tenor	!Altus 2	!Altus 1	!Cantus
*clefF4	*clefF4	*clefGv2	*clefG2	*clefG2	*clefG2
*k[b-]	*k[b-]	*k[b-]	*k[b-]	*k[b-]	*k[b-]
*F:ion	*F:ion	*F:ion	*F:ion	*F:ion	*F:ion
*M4/2	*M4/2	*M4/2	*M4/2	*M4/2	*M4/2
=1	=1	=1	=1	=1	=1
0r	0r	0r	0r	1f	0r
.	.	.	.	1a	.
=2	=2	=2	=2	=2	=2
0r	0r	0r	0r	1b-	0r
.	.	.	.	2.cc	.
.	.	.	.	4b-	.
=3	=3	=3	=3	=3	=3
0r	0r	0r	0r	4a	1f
.	.	.	.	4g	.
.	.	.	.	2.f	.
.	.	.	.	.	1a
.	.	.	.	4e	.
.	.	.	.	4d	.
.	.	.	.	4c	.
=4	=4	=4	=4	=4	=4
0r	1r	0r	1f	1d	1b-
.	1F	.	2.a	2c	1cc
.	.	.	.	[2f	.
.	.	.	4b-	.	.
=5	=5	=5	=5	=5	=5
0r	1A	0r	1cc	2f]	2r
.	.	.	.	2e	2cc
.	1B-	.	2.b-	1d	2dd
.	.	.	.	.	[2ff
.	.	.	4a	.	.
=6	=6	=6	=6	=6	=6
1r	2.c	0r	2g	2r	2ff]
.	.	.	2.cc	2g	2ee
.	4B-	.	.	.	.
1F	4A	.	.	2a	1ff
.	4G	.	4b-	.	.
.	[2F	.	4a	4cc	.
.	.	.	4g	4b-	.
=7	=7	=7	=7	=7	=7
1A	4F]	0r	2.f	4a	2r
.	4E	.	.	4g	.
.	4D	.	.	2a	1ff
.	4C	.	4e	.	.
1B-	1D	.	2d	1f	.
.	.	.	2d	.	2dd
=8	=8	=8	=8	=8	=8
2.c	2C	1r	2g	2e	1ee
.	2.c	.	2g	2e	.
4B-	.	.	.	.	.
4A	.	1F	2a	[1f	1cc
4G	4B-	.	.	.	.
[2F	4A	.	4cc	.	.
.	4G	.	4b-	.	.
=9	=9	=9	=9	=9	=9
4F]	1F	1A	4a	1f]	1ff
4E	.	.	4g	.	.
4D	.	.	1f	.	.
4C	.	.	.	.	.
1D	1r	1B-	.	1r	1ff
.	.	.	2d	.	.
=10	=10	=10	=10	=10	=10
1C	2r	1c	1e	1g	2.ee
.	2c	.	.	.	.
.	.	.	.	.	4dd
1r	2F	2r	1f	2a	1cc
.	2A	2c	.	2cc	.
=11	=11	=11	=11	=11	=11
0r	2G	2d	2g	2b-	2r
.	2F	1f	2.c	2a	2cc
.	1c	.	.	2g	2cc
.	.	.	4d	.	.
.	.	2e	4e	[2cc	2cc
.	.	.	4c	.	.
=12	=12	=12	=12	=12	=12
2r	1G	1d	2g	2cc]	2dd
2G	.	.	2d	2b	2g
2C	2r	1c	2e	1cc	1g
2E	2G	.	2g	.	.
=13	=13	=13	=13	=13	=13
2D	2A	2d	2f	1r	0r
2C	1c	2.g	2e	.	.
1G	.	.	1d	2r	.
.	.	8f	.	.	.
.	.	8e	.	.	.
.	2B	2d	.	2g	.
=14	=14	=14	=14	=14	=14
1C	1c	2.e	1c	2g	0r
.	.	.	.	2c	.
.	.	4f	.	.	.
1r	2B	1g	2r	2d	.
.	2c	.	2cc	2e	.
=15	=15	=15	=15	=15	=15
0r	1F	1a	2cc	1f	2r
.	.	.	2f	.	2cc
.	1r	1r	2g	2e	2cc
.	.	.	2a	2d	2f
=16	=16	=16	=16	=16	=16
0r	0r	0r	2b-	2g	2g
.	.	.	2a	2f	2a
.	.	.	4g	1B-	2.b-
.	.	.	4f	.	.
.	.	.	[2f	.	.
.	.	.	.	.	4a
=17	=17	=17	=17	=17	=17
1r	0r	2r	2f]	[0c	1g
.	.	2g	4e	.	.
.	.	.	4d	.	.
2r	.	2g	2.e	.	1cc
2c	.	2c	.	.	.
.	.	.	4f	.	.
=18	=18	=18	=18	=18	=18
2c	0r	2e	2g	1c]	1cc
2F	.	2f	2a	.	.
2G	.	2d	2g	1r	2b-
2A	.	[2f	2c	.	2a
=19	=19	=19	=19	=19	=19
2B-	1r	4f]	1f	0r	2dd
.	.	4B-	.	.	.
2A	.	2c	.	.	1cc
1G	2r	[1d	[1g	.	.
.	2G	.	.	.	4b-
.	.	.	.	.	4a
=20	=20	=20	=20	=20	=20
0r	2G	2d]	2g]	0r	2b-
.	2C	2c	2e	.	1a
.	2D	1B-	2f	.	.
.	2E	.	4e	.	2g
.	.	.	4d	.	.
=21	=21	=21	=21	=21	=21
1r	0F	2.A	2c	2r	1a
.	.	.	2f	2cc	.
.	.	4B-	.	.	.
2r	.	1c	2.a	2cc	1ff
2c	.	.	.	2f	.
.	.	.	4b-	.	.
=22	=22	=22	=22	=22	=22
2c	0r	1r	1cc	2g	2ee
2F	.	.	.	2a	2ff
2G	.	2r	1r	2b-	2dd
2A	.	2f	.	[2a	2cc
=23	=23	=23	=23	=23	=23
1B-	1r	2f	1r	2a]	1dd
.	.	2d	.	2g	.
1A	2r	2e	2r	1a	2.cc
.	2F	2f	2a	.	.
.	.	.	.	.	4b-
=24	=24	=24	=24	=24	=24
2r	2F	1c	2a	2.cc	2a
2c	2C	.	2e	.	2g
.	.	.	.	4b-	.
2F	2D	1r	2f	2a	2r
2G	2E	.	4e	2g	2cc
.	.	.	4d	.	.
=25	=25	=25	=25	=25	=25
2.A	0F	2r	2c	1f	2cc
.	.	2c	2A	.	2f
4G	.	.	.	.	.
4F	.	2c	2c	1f	2.a
4E	.	.	.	.	.
2D	.	2F	2d	.	.
.	.	.	.	.	4b-
=26	=26	=26	=26	=26	=26
2C	0r	2G	2e	2e	1cc
2F	.	2A	2f	2a	.
1BB-	.	2.B-	1d	2g	2dd
.	.	.	.	[2f	2dd
.	.	4A	.	.	.
=27	=27	=27	=27	=27	=27
0C	1r	0G	0g	2f]	0cc
.	.	.	.	4e	.
.	.	.	.	4d	.
.	2r	.	.	1e	.
.	2c	.	.	.	.
=28	=28	=28	=28	=28	=28
1F	2c	2F	2.a	[0f	2r
.	2F	1c	.	.	2a
.	.	.	4g	.	.
2F	2A	.	2f	.	2cc
2BB-	2B-	[2B-	2d	.	[2dd
=29	=29	=29	=29	=29	=29
2D	0F	2B-]	2.f	1f_	2dd]
2F	.	2A	.	.	2cc
.	.	.	4e	.	.
1BB-	.	1B-	1d	1f_	1b-
=30	=30	=30	=30	=30	=30
0F	0F	0A	0c	0f]	0cc
*-	*-	*-	*-	*-	*-
!!!CDT: 1525/^1526/-1594/2/2
!!!OCY: Italia
!!!AGN: Mass (Paraphrase)
!!!AST: renaissance, vocal
!!!ASW: Antiphon
!!!PWK: Masses, Book 11
!!!RNB: Cadence finals: C
!!!YOR: Le Opere Complete, v. 28, p. 148
!!!YOO: Rome, Italy: Fratelli Scalera
!!!END: 1992//
!!!EED: John Miller
!!!YEC: Copyright 2000, John Miller
!!!YEN: United States of America
!!!YEM: Rights to all derivative electronic formats reserved.
!!!YEM: Refer to licensing agreement for further details.
!!!YEM: This file must be accompanied by the licensing agreement.
!!!YEM: A copy of the licensing agreement may be found at http://www.music-cog.ohio-state.edu/HumdrumDatabases/Palestrina/license.txt
!!!EMD: converted to Humdrum by Bret Aarden
